images/themes/sigpacgo/nodpi/ic_split_tool_white_24dp.svg

<svg xmlns="http://www.w3.org/2000/svg" xmlns:xlink="http://www.w3.org/1999/xlink" width="24" height="24" viewBox="0 0 24 24">
<path fill-rule="nonzero" fill="rgb(100%, 100%, 100%)" fill-opacity="1" d="M 18.300781 4 L 12.898438 9.300781 L 14.699219 11.101562 L 21 4.800781 L 21 4 M 6.601562 19.199219 C 4.199219 19.199219 4.199219 15.601562 6.601562 15.601562 C 9 15.601562 9 19.199219 6.601562 19.199219 M 6.601562 8.398438 C 4.199219 8.398438 4.199219 4.800781 6.601562 4.800781 C 9 4.800781 9 8.398438 6.601562 8.398438 M 9.875 8.074219 C 10.082031 7.625 10.199219 7.132812 10.199219 6.601562 C 10.199219 3.390625 6.324219 1.785156 4.054688 4.054688 C 1.785156 6.320312 3.390625 10.199219 6.601562 10.199219 C 7.132812 10.199219 7.625 10.082031 8.074219 9.875 L 10.199219 12 L 8.074219 14.125 C 7.613281 13.910156 7.109375 13.800781 6.601562 13.800781 C 3.390625 13.800781 1.785156 17.675781 4.054688 19.945312 C 6.320312 22.214844 10.199219 20.609375 10.199219 17.398438 C 10.199219 16.867188 10.082031 16.375 9.875 15.925781 L 12 13.800781 L 18.300781 20 L 21 20 L 21 19.199219 Z M 9.875 8.074219 "/>
<path fill-rule="nonzero" fill="rgb(100%, 100%, 100%)" fill-opacity="1" d="M 1 11 L 8 11 L 8 13 L 1 13 Z M 16 11 L 23 11 L 23 13 L 16 13 Z M 16 11 "/>
</svg>

<?xml version="1.0" encoding="UTF-8"?>
<svg width="24" height="24" version="1.1" xmlns="http://www.w3.org/2000/svg" xmlns:cc="http://creativecommons.org/ns#" xmlns:dc="http://purl.org/dc/elements/1.1/" xmlns:rdf="http://www.w3.org/1999/02/22-rdf-syntax-ns#">
 <metadata>
  <rdf:RDF>
   <cc:Work rdf:about="">
    <dc:format>image/svg+xml</dc:format>
    <dc:type rdf:resource="http://purl.org/dc/dcmitype/StillImage"/>
    <dc:title/>
   </cc:Work>
  </rdf:RDF>
 </metadata>
 <path d="m18.3 4-5.4 5.3 1.8 1.8 6.3-6.3v-0.8m-14.4 15.2c-2.4 0-2.4-3.6 0-3.6 2.4 0 2.4 3.6 0 3.6m0-10.8c-2.4 0-2.4-3.6 0-3.6 2.4 0 2.4 3.6 0 3.6m3.276-0.324c0.207-0.45 0.324-0.945 0.324-1.476 0-3.2075-3.8777-4.8132-6.1455-2.5455s-0.66203 6.1455 2.5455 6.1455c0.531 0 1.026-0.117 1.476-0.324l2.124 2.124-2.124 2.124c-0.46261-0.21398-0.9663-0.32454-1.476-0.324-3.2075 0-4.8132 3.8777-2.5455 6.1455s6.1455 0.66203 6.1455-2.5455c0-0.531-0.117-1.026-0.324-1.476l2.124-2.124 6.3 6.2h2.7v-0.8z" fill="#fff"/>
 <path d="m1 11h7v2h-7zm15 0h7v2h-7z" fill="#fff"/>
</svg>
